X:631
T:Kemp's Jeg.
C:John Malchair's Third Collection of Tunes
F:https://www.vwml.org/record/Malchair/3619/p63
F:www.vwml.org/topics/historic-dance-and-tune-books/Malchair
Z:Eric Conrad Feb 2020
N:NB1 older notation - half notes in MS are stemless black notes.
N:NB2 repeats added
N:NB3 change time signature from C[ommon] (i.e. 6/4) to 6/8, with notes halved in length
M:6/8 % Barred as 6/4 but marked as common time in MS
L:1/8
K:Dmix
P:A
|: "_NB1,2,3"g | g>ag efg | f>ef def | gab aba | f3 d2 :|
P:B
|: A | _B3 c3 | d3- d2A | _B3 c3 | d3- d2A |
BAB cBc | ded d3/2c/B/c/ | A2G G^F2 | G3- G2 :|


